!!!!SEGMENT: pl-sa--27-a-i-27--001_dankowski-adalbert--vespere-de-confessore-domine-ad-adiuvandum.krn
!!!cenid: 18xx:326
!!!COM: Dankowski, Adalbert
!!!COM-rismid: pe30000793
!!!CDT: ~1760-~1836
!!!CNT: Polish
!!!OPR: Vespere de confessore
!!!OTL: Domine ad adiuvandum
!!!OMV: 001
!!!PDT: 1815
!!!AGN: Sacred; Vespers
!!!SMS-siglum: PL-SA
!!!SMS-shelfmark: 27/A I 27
!!!SMS-shelfwork: 001-001 M
!!!SMS-variant:
!!!SMS-altvar:
!!!NIFC-rismid: 1001068242
!!!URL-scan: http://bc.bdsandomierz.pl/dlibra/publication/1260/edition/1228/content
!!!ONB-nifc: UWAGA: części Vespere: Domine ad adiuvandum, Dixit dominus, Confitebor, Beatus vir, Laudate Dominum, Magnificat
**kern	**kern	**kern	**kern	**text	**kern	**text	**kern	**text
*part6	*part5	*part4	*part3	*part3	*part2	*part2	*part1	*part1
*staff6	*staff5	*staff4	*staff3	*staff3	*staff2	*staff2	*staff1	*staff1
*Iorgan	*Ivioln	*Ivioln	*Itenor	*	*Ialto	*	*Ivox	*
*I"Organo.	*I"Violino 2do	*I"Violino Primo.	*I"Tenore	*	*I"Alto=	*	*I"Canto	*
*I'org	*I'vn 2	*I'vn 1	*I'T	*	*I'A	*	*I'S	*
*clefF4	*clefG2	*clefG2	*clefC4	*	*clefC3	*	*clefC1	*
*k[]	*k[]	*k[]	*k[]	*	*k[]	*	*k[]	*
*C:	*C:	*C:	*C:	*	*C:	*	*C:	*
*M3/4	*M3/4	*M3/4	*M3/4	*	*M3/4	*	*M3/4	*
=1	=1	=1	=1	=1	=1	=1	=1	=1
!	!LO:N:vis=4	!	!	!	!	!	!	!
!LO:TX:b:t=Domine ad juvandum	!LO:TX:b:t=Domine adjuvandum	!LO:TX:b:t=Domine ad juvandum	!LO:TX:a:t=2	!	!	!	!LO:TX:a:t=2	!
!LO:TX:rj:a:t=Andantino	!LO:TX:a:t=Andantino	!LO:TX:a:t=Andantino.	!LO:TX:a:t=Andantino.	!	!LO:TX:a:t=Andantino	!	!LO:TX:a:t=Andantino.	!
!	!	!	!LO:N:vis=0	!	!	!	!LO:N:vis=0	!
4C/	8cc\	8cc\L	1.r	.	8cc\	Do-	1.r	.
!	!LO:N:vis=8	!	!	!	!	!	!	!
.	16r	16cc\L	.	.	16cc\	-mi-	.	.
!	!LO:N:vis=8	!	!	!	!	!	!	!
.	16g/	16g\JJ	.	.	16b\	-ne	.	.
!	!LO:TX:a:t=P:mixed beam:problem	!	!	!	!	!	!	!
8r	8cc\L	8cc\L	.	.	8cc\	ad-	.	.
8GG/	8g/J	8g\	.	.	8g\	-ju-	.	.
!	!LO:TX:a:t=P:mixed beam:problem	!	!	!	!	!	!	!
8C/L	8cc\L	8cc\	.	.	8cc\	-van-	.	.
8GG/J	8g/J	8g\J	.	.	8g\	-dum	.	.
=2	=2	=2	=2	=2	=2	=2	=2	=2
!	!LO:TX:a:t=P:mixed beam:problem	!	!	!	!	!	!	!
8C/L	8cc\L	8cc/L	.	.	8cc\	me	.	.
8C/	8g/J	8g/	.	.	8g\	fe-	.	.
8E/	8e/L	8e/	.	.	8e\	-sti-	.	.
8G/J	8g/J	8g/J	.	.	8g\	.	.	.
4C/	4c/	4c/	.	.	4c\	-na	.	.
=3	=3	=3	=3	=3	=3	=3	=3	=3
8C/	8cc\L	8ee\L	8c\	Do-	8g\	Do-	8ee\	Do-
8r	16cc\L	16ee\L	16c\	-mi-	16g\	-mi-	16ee\	-mi-
.	16cc\JJ	16dd\JJ	16B\	-ne	16g\	-ne	16dd\	-ne
8C/L	8cc\L	8ee\L	8c\	ad-	8g\	ad-	8ee\	ad-
8GG/	8b\	8dd\	8B\	-ju-	8g\	-ju-	8dd\	-iu-
8C/	8cc\	8ee\	8c\	-van-	8g\	-van-	8ee\	-van-
8GG/J	8b\J	8dd\J	8B\	-dum	8g\	-dum	8dd\	-dum
=4	=4	=4	=4	=4	=4	=4	=4	=4
4C/	8cc\L	8ee\L	8c\	me	8g\	me	8ee\	me
.	8cc\J	8ee\J	8c\	fe-	8g\	fe-	8ee\	fe-
4C/	4cc\	4ee\	4c\	-sti-	4g\	-sti-	4ee\	-sti-
4GG/	4b\	4dd\	4B\	-na	4g\	-na	4dd\	-na
!	!	!	!	!	!LO:LB:g=original	!	!	!
=5	=5	=5	=5	=5	=5	=5	=5	=5
!LO:TX:a:t=P:mixed beam:problem	!	!	!	!	!	!	!	!
*	*	*	*	*	*	*	*	*ij
8C/L	8cc\L	8ee\L	8c\	Do-	8g\	Do-	8ee\	Do-
8c\J	16cc\L	16ee\L	16c\	-mi-	16g\	-mi-	16ee\	-mi-
.	16cc\JJ	16ee\JJ	16c\	-ne	16g\	-ne	16ee\	-ne
*2\right	*2\right	*2\right	*	*	*	*	*	*
*tremolo	*tremolo	*tremolo	*	*	*	*	*	*
!LO:TX:a:t=P:mixed beam:problem	!	!	!	!	!	!	!	!
8C/L	8cc\L	8ee\L	8c\	ad-	8g\	ad-	8ee\	ad-
8c\	8cc\	8ee\	8c\	-ju-	8g\	-ju-	8ee\	-iu-
8C/	8cc\	8ee\	8c\	-van-	8g\	-van-	8ee\	-van-
8c\J	8cc\J	8ee\J	8c\	-dum	8g\	-dum	8ee\	-dum
*	*Xtremolo	*Xtremolo	*	*	*	*	*	*
!	!	!	!LO:LB:g=original	!	!	!	!	!
=6	=6	=6	=6	=6	=6	=6	=6	=6
!LO:TX:a:t=P:mixed beam:problem	!	!	!	!	!	!	!	!
8GGL/	8dd\L	8ff\L	8d\	me	8a\	me	8ff\	me
8G\	8dd\J	8ff\J	8d\	fe-	8a\	fe-	8ff\	fe-
8GG/	4dd\	4ff\	4d\	-sti-	4a\	-sti-	4ff\	-sti-
8G\	.	.	.	.	.	.	.	.
8GG/	4dd\	4ff\	4d\	-na	4a\	-na	4ff\	-na
8GJ\	.	.	.	.	.	.	.	.
*	*	*	*	*	*	*	*	*Xij
!	!	!	!	!	!	!	!LO:LB:g=original	!
=7	=7	=7	=7	=7	=7	=7	=7	=7
!LO:TX:a:t=P:mixed beam:problem	!	!	!	!	!	!	!	!
8GG/L	8b\L	8dd\L	8B\	Do-	8g\	Do-	8dd\	Do-
8G\	16b\L	16dd\L	16B\	-mi-	16g\	-mi-	16dd\	-mi-
.	16b\JJ	16dd\JJ	16B\	-ne	16g\	-ne	16dd\	-ne
!	!LO:LB:g=original	!	!	!	!	!	!	!
*	*tremolo	*tremolo	*	*	*	*	*	*
8GG/	8b\L	8dd\L	8B\	ad-	8g\	ad-	8dd\	ad-
8G\	8b\	8dd\	8B\	-ju-	8g\	-ju-	8dd\	-ju-
8GG/	8b\	8dd\	8B\	-van-	8g\	-van-	8dd\	-van-
8G\J	8b\J	8dd\J	8B\	-dum	8g\	-dum	8dd\	-dum
*	*Xtremolo	*Xtremolo	*	*	*	*	*	*
=8	=8	=8	=8	=8	=8	=8	=8	=8
!LO:TX:a:t=P:mixed beam:problem	!	!	!	!	!	!	!	!
8C/L	8cc\L	8ee\L	8c\	me	8g\	me	8ee\	me
8c\	8cc\J	8ee\J	8c\	fe-	8g\	fe-	8ee\	fe-
8C/	4cc\	4ee\	4c\	-sti-	4g\	-sti-	4ee\	-sti-
8c\	.	.	.	.	.	.	.	.
8C/	4cc\	4ee\	4c\	-na	4g\	-na	4ee\	-na
8c\J	.	.	.	.	.	.	.	.
!LO:LB:g=original	!	!	!	!	!	!	!	!
=9	=9	=9	=9	=9	=9	=9	=9	=9
4C/	8ee\L	8gg\L	8e\	me	8cc\	me	8gg\	me
.	8cc\	8ee\	8c\	fe-	8cc\	fe-	8ee\	fe-
!	!	!	!	!	!LO:LB:g=original	!	!	!
4GG/	8dd\	8ff\	8e\	-sti-	8g\	-sti-	8ff\	-sti-
.	8b\J	8dd\J	8B\	-na	8g\	-na	8dd\	-na
4r	16e/LL	(16cc\LL	4r	.	4r	.	4r	.
.	16g/	16dd\	.	.	.	.	.	.
.	16cc/	16ee\	.	.	.	.	.	.
.	16dd/JJ	16ff\JJ)	.	.	.	.	.	.
!	!	!LO:LB:g=original	!LO:LB:g=original	!	!	!	!	!
=10	=10	=10	=10	=10	=10	=10	=10	=10
!	!	!	!LO:TX:a:t=3.	!	!	!	!LO:TX:a:t=1	!
!	!	!	!LO:N:vis=0	!	!	!	!	!
4C/	8g/L	8ee\L	1.r	.	8g\	me	2.r	.
.	8e/	8cc\	.	.	8e\	fe-	.	.
4G\	8f/	8dd\	.	.	8f\	-sti-	.	.
.	8e/J	8cc\	.	.	8e\	-na	.	.
16G\LL	4r	8b\	.	.	4r	.	.	.
16F\	.	.	.	.	.	.	.	.
16E\	.	8g\J	.	.	.	.	.	.
16D\JJ	.	.	.	.	.	.	.	.
=11	=11	=11	=11	=11	=11	=11	=11	=11
4C/	4cc\	4ee\	.	.	4cc\	Glo-	4ee\	Glo-
4r	16cc\LL	(16ee\LL	.	.	16cc\LL	.	16ee\LL	.
.	16dd\	16ff\	.	.	16dd\JJ	.	16ff\	.
.	16ee\	16gg\	.	.	16ee\LL	.	16gg\	.
.	16ff\JJ	16aa\JJ)	.	.	16ff\JJ	.	16aa\JJ	.
4r	8ee\L	8gg\L	.	.	8ee\	.	8gg\	-ri-
.	16dd\L	16ff\L	.	.	16dd\	-ri-	16ff\LL	-a
.	16cc\JJ	16ee\JJ	.	.	16cc\	-a	16ee\JJ	.
=12	=12	=12	=12	=12	=12	=12	=12	=12
*tremolo	*	*	*	*	*	*	*	*
!LO:TX:a:t=P:mixed beam:problem	!	!	!	!	!	!	!	!
8GG/L	8dd\L	8ff\L	2.r	.	8dd\	Pa-	8ff\L	Pa-
8G\	8b\J	8dd\J	.	.	8b\	-tri	8dd\J	-tri
8GG/	16g/LL	16g/LL	.	.	4r	.	4r	.
.	16f#X/	(16a/	.	.	.	.	.	.
8G\	16g/	16b/	.	.	.	.	.	.
.	16a/JJ	16cc/JJ)	.	.	.	.	.	.
8GG/	16b\LL	16dd\LL	.	.	4r	.	4r	.
.	16cc\	(16ee\	.	.	.	.	.	.
8G\J	16dd\	16ff\	.	.	.	.	.	.
.	16b\JJ	16dd\JJ)	.	.	.	.	.	.
!	!LO:LB:g=original	!	!	!	!	!	!LO:LB:g=original	!
=13	=13	=13	=13	=13	=13	=13	=13	=13
!	!	!	!	!	!	!	!LO:TX:a:t=2	!
!	!	!	!	!	!	!	!LO:N:vis=0	!
4GG/	4b\	4dd\	4d\	Glo-	4b\	Glo-	1.r	.
4r	16b\LL	16dd\LL	16d\LL	.	16b\LL	.	.	.
.	16cc\	16ee\	16e\JJ	.	16cc\JJ	.	.	.
.	16dd\	16ff\	16f\LL	.	16dd\LL	.	.	.
.	16ee\JJ	16gg\JJ	16g\JJ	.	16ee\JJ	.	.	.
4r	8dd\L	8ff\L	8f\	.	8dd\	-ri-	.	.
.	16cc\L	16ee\L	16e\	-ri-	16cc\LL	-a	.	.
.	16b\JJ	16dd\JJ	16d\	-a	16b\JJ	.	.	.
=14	=14	=14	=14	=14	=14	=14	=14	=14
4G`\	8dd\L	8ff'\L	8e\	Fi-	8g\	Fi-	.	.
.	8b\J	8dd'\J	8c\	-lio	8e\	-lio	.	.
4D`\	16b/LL	16dd\LL	4r	.	4r	.	.	.
.	16a/	16cc\	.	.	.	.	.	.
.	16g/	16b\	.	.	.	.	.	.
.	16f#X/JJ	16a\JJ	.	.	.	.	.	.
4GG`/	4g/	4g/	4r	.	4r	.	.	.
!	!	!	!	!	!LO:LB:g=original	!	!	!
=15	=15	=15	=15	=15	=15	=15	=15	=15
!	!	!	!	!	!LO:TX:a:t=2	!	!	!
!	!	!	!	!	!LO:N:vis=0	!	!	!
4C/	8e/L	8cc\L	8E/	et	1.r	.	8cc\	et
.	8e/	8cc\J	8E/	Spi-	.	.	8cc\	Spi-
4r	8e/	8cc\L	8E/L	-ri-	.	.	8cc\	-ri-
.	8g/	8ee\	8G/J	.	.	.	8ee\	.
4r	8f/	8dd\	8F/	-tu-	.	.	8dd\	-tu-
.	8d/J	8b\J	8D/	-i	.	.	8b\	-i
=16	=16	=16	=16	=16	=16	=16	=16	=16
8r	4f/	4dd\	4F/	San-	.	.	4dd\	San-
8C`\L	.	.	.	.	.	.	.	.
*	*	*	*	*	*	*	*2\right	*
8E`\	2e/	2cc\	2E/	-cto	.	.	2cc\	-cto.
8G`\J	.	.	.	.	.	.	.	.
!LO:TX:a:t=P:mixed beam:problem	!	!	!	!	!	!	!	!
8c`\L	.	.	.	.	.	.	.	.
8C`/J	.	.	.	.	.	.	.	.
!	!	!LO:LB:g=original	!	!	!	!	!	!
=17	=17	=17	=17	=17	=17	=17	=17	=17
!	!	!	!LO:N:vis=00	!	!	!	!	!
4C/	8cc\L	8ee\L	0.r	.	8cc\	et	8ee\	et
.	8cc\J	8ee\J	.	.	8cc\	Spi-	8ee\	Spi-
4C/	8cc\L	8ee\L	.	.	8cc\	-ri-	8ee\	-ri-
.	8ee\	8gg\	.	.	8ee\	.	8gg\	.
4GG/	8dd\	8ff\	.	.	8dd\	-tu-	8ff\	-tu-
.	8b\J	8dd\J	.	.	8b\	-i	8dd\	-i
!LO:LB:g=original	!	!	!	!	!	!	!	!
=18	=18	=18	=18	=18	=18	=18	=18	=18
8r	4dd\	4ff\	.	.	4dd\	San-	4ff\	San-
8c'\L	.	.	.	.	.	.	.	.
*	*	*	*	*	*2\right	*	*	*
8G'\	2cc\	2ee\	.	.	2cc\	-cto	2ee\	-cto
8E'\J	.	.	.	.	.	.	.	.
4C/	.	.	.	.	.	.	.	.
=19	=19	=19	=19	=19	=19	=19	=19	=19
!	!	!	!	!	!	!	!LO:TX:a:t=4	!
!	!	!	!	!	!	!	!LO:N:vis=00	!
8c'\L	8cc\L	(8cc\L	.	.	8cc\	Si-	0.r	.
8B'\	8b\	8g\	.	.	8b\	-cut	.	.
8c'\	8cc\J	8cc\)	.	.	8cc\	e-	.	.
8G'\	8r	8g'\	.	.	8g\	-rat	.	.
8A'\	4r	8a'\	.	.	8a\	in	.	.
8B'\J	.	8b'\J	.	.	8b\	prin-	.	.
!	!LO:LB:g=original	!	!	!	!	!	!	!
=20	=20	=20	=20	=20	=20	=20	=20	=20
8c'\L	8cc\L	(8cc\L	.	.	8cc\	-ci-	.	.
8B'\	8b\	8b\	.	.	8b\	-pi-	.	.
8c'\	8cc\J	8cc\)	.	.	8cc\	-o	.	.
8G'\	8r	8g'\	.	.	8g\	et	.	.
8A'\	4r	8a'\	.	.	8a\	nunc	.	.
8B'\J	.	8b'\J	.	.	8b\	et	.	.
=21	=21	=21	=21	=21	=21	=21	=21	=21
!	!	!	!LO:N:vis=0	!	!	!	!	!
8c'\L	8cc`/L	8cc'/L	1.r	.	8cc\	ſem-	.	.
8B'\	8b`/	8b'/	.	.	8b\	-per	.	.
8A'\	8a`/	8a'/	.	.	8a\	et	.	.
8G'\	8g`/	8g'/	.	.	8g\	in	.	.
!	!	!	!	!	!LO:LB:g=original	!	!	!
8F'\	8f`/	8f'/	.	.	16f\	ſae-	.	.
.	.	.	.	.	16f\	-cu-	.	.
8E'\J	8e`/J	8e'/J	.	.	8e\	-la	.	.
=22	=22	=22	=22	=22	=22	=22	=22	=22
8F\L	8f/L	8f/L	.	.	8f\	ſae-	.	.
8D\J	8d/J	8d/J	.	.	8d\	-cu-	.	.
4G\	4g/	4g/	.	.	4g\	-lo-	.	.
4GG/	4G/	4G/	.	.	4g\	-rum	.	.
=23	=23	=23	=23	=23	=23	=23	=23	=23
*	*tremolo	*	*	*	*	*	*	*
4C/	(8e/L	8cc'\L	8E/	a-	8g\	a-	8cc\	a-
.	8g/	8cc'\J	8E/	-men	8g\	-men	8cc\	-men
!	!	!	!LO:LB:g=original	!	!	!	!	!
4c\	8e/	8r	8r	.	4r	.	8r	.
.	8g/	8cc'\L	8E/L	a-	.	.	8cc\L	a-
4r	8e/	8dd'\	8F/	.	4r	.	8dd\	.
.	8g/J)	8ee'\J	8G/J	-men	.	.	8ee\J	-men
=24	=24	=24	=24	=24	=24	=24	=24	=24
4GG/	(8f/L	8ff\L	8A/	a-	8dd\	a-	8ff\	a-
.	8g/	8ff\J	8A/	-men	8dd\	-men	8ff\	-men
4G\	8f/	8r	8r	.	4r	.	8r	.
*	*	*	*	*	*	*	*	*ij
.	8g/	8ff\L	8A/	a-	.	.	8ff\L	a-
4r	8f/	8dd\	8F/	.	4r	.	8dd\	.
.	8g/J)	8b\J	8D/	-men	.	.	8b\J	-men
*	*	*	*	*	*	*	*	*Xij
!	!	!LO:LB:g=original	!	!	!	!	!LO:LB:g=original	!
=25	=25	=25	=25	=25	=25	=25	=25	=25
4C/	(8e/L	8cc\L	8E/	a-	8g\	a-	8cc\	a-
.	8g/	8cc\J	8E/	-men	8g\	-men	8cc\	-men
4c\	8e/	8r	8r	.	4r	.	8r	.
*	*	*	*	*	*	*	*	*ij
.	8g/	8cc\L	8E/L	a-	.	.	8cc\L	a-
4r	8e/	8dd\	8F/	.	4r	.	8dd\	.
.	8g/J)	8ee\J	8G/J	-men	.	.	8ee\J	-men
*	*	*	*	*	*	*	*	*Xij
=26	=26	=26	=26	=26	=26	=26	=26	=26
4GG/	(8f/L	8ff\L	8A\	a-	8dd\	a-	8ff\	a-
.	8g/	8ff\J	8A\	-men	8dd\	-men	8ff\	-men
4G\	8f/	8r	8r	.	4r	.	8r	.
*	*	*	*	*	*	*	*	*ij
.	8g/	8ff`\L	8A/	a-	.	.	8ff\L	a-
4r	8f/	8dd`\	8F/	.	4r	.	8dd\	.
.	8g/J)	8b`\J	8D/	.	.	.	8b\J	-men
*	*	*	*	*	*	*	*	*Xij
!LO:LB:g=original	!	!	!	!	!	!	!	!
=27	=27	=27	=27	=27	=27	=27	=27	=27
4G\	4G/ 4f/	4dd\	4D/	.	4f\	a-	4dd\	a-
4C/	4G/ 4e/	4cc\	4E/	-men	4e\	-men	4cc\	-men
4r	4r	4r	4r	.	4r	.	4r	.
==	==	==	==	==	==	==	==	==
*-	*-	*-	*-	*-	*-	*-	*-	*-
!!!system-decoration: [(s1,s2,s3)][(s4,s5,s6)]
!!!EED: Leszek Kubiak
!!!EST: 2020-10-28
!!!ENC: Andrzej Borzym
!!!END: 2020-06-04
